icons/creative-commons-sa-fill.svg

<svg width="24" height="24" fill="none" xmlns="http://www.w3.org/2000/svg"><g clip-path="url(#a)"><path d="M12 2c5.52 0 10 4.48 10 10s-4.48 10-10 10S2 17.52 2 12 6.48 2 12 2Zm0 4C9.895 6 8.094 7.56 7.357 9.77l-.073.23H6l2.5 3 2.5-3H9.401C9.92 8.805 10.89 8 12 8c1.657 0 3 1.79 3 4s-1.343 4-3 4c-1.048 0-1.971-.717-2.508-1.803L9.402 14H7.285c.685 2.33 2.538 4 4.715 4 2.761 0 5-2.686 5-6s-2.239-6-5-6Z" /></g><defs><clipPath id="a"><path fill="#fff" d="M0 0h24v24H0z"/></clipPath></defs></svg>

<svg xmlns="http://www.w3.org/2000/svg" width="24" height="24" fill="none"><g clip-path="url(#a)"><g><path fill="#121212" d="M12 2C17.52 2 22 6.48 22 12C22 17.52 17.52 22 12 22C6.48 22 2 17.52 2 12C2 6.48 6.48 2 12 2ZM12 6C9.895 6 8.094 7.56 7.357 9.77L7.284 10H6L8.5 13L11 10H9.401C9.92 8.805 10.89 8 12 8C13.657 8 15 9.79 15 12C15 14.21 13.657 16 12 16C10.952 16 10.029 15.283 9.492 14.197L9.402 14H7.285C7.97 16.33 9.823 18 12 18C14.761 18 17 15.314 17 12C17 8.686 14.761 6 12 6Z"/></g></g><defs><clipPath id="a"><rect width="24" height="24" fill="white"/></clipPath></defs></svg>
